X: 30126
T: Old Brown Slipper, The
R: slip jig
M: 9/8
K: Gmajor
B3 B2 A GED|d2 g g2 e dBA|B3 B2 A GED|EGG G2 A G3:|
B2 g g2 e fed|B2e efe dBA|B2 g g2 e fed|Bee e2d e3:|
e2 f g2 e fed|B2 e efe dBA|B3 B2 A GED|EGG G2 A G3:|

